X: 1
T: Weirside
C: Paul Burgess
R: waltz
S: John Adams tradtunes 2016-4-6
L: 1/8
M: 3/4
K: G
d2c2 |:\
B3A Bc | d2B2G2 | c3d cB | A3B AG |\
F3G AB | c2A2F2 |1,3 B3A Bc | d2B2G2 :|2,4 DE Fc BA | G2 :| 
|: B2d2 |:\
g3a (3gfe | f2d2B2 | c>B cd eg | f6 |\
f>e fg ab | a2f2d2 |1,3 g3d cd | B4d2 :|2,4 g2d2B2 | G2 :| 
